icons/person-chevron-down.svg

<svg xmlns="http://www.w3.org/2000/svg" width="24" height="24" viewBox="0 0 24 24">
  <path d="M10,16 C12.9230769,16 15.8461538,16.9493754 15.9941334,19.3106425 L16,19.5 L16,20.5 C16,20.975 16,21.90125 15.142625,21.9926875 L15,22 L3,22 C2.1,22 2.01,21.19 2.001,20.6635 L2,19.5 C2,17.0641026 4.84812623,16.0522682 7.76928134,16.0019808 L8,16 L10,16 Z M9,6 C11.209139,6 13,7.790861 13,10 C13,12.209139 11.209139,14 9,14 C6.790861,14 5,12.209139 5,10 C5,7.790861 6.790861,6 9,6 Z M14.3871006,2.70970461 C14.7793918,2.40467972 15.3466228,2.43240926 15.7071068,2.79289322 L15.7071068,2.79289322 L18,5.085 L20.2928932,2.79289322 L20.3871006,2.70970461 C20.7793918,2.40467972 21.3466228,2.43240926 21.7071068,2.79289322 C22.0976311,3.18341751 22.0976311,3.81658249 21.7071068,4.20710678 L21.7071068,4.20710678 L18.7071068,7.20710678 L18.6128994,7.29029539 C18.2206082,7.59532028 17.6533772,7.56759074 17.2928932,7.20710678 L17.2928932,7.20710678 L14.2928932,4.20710678 L14.2097046,4.11289944 C13.9046797,3.72060824 13.9324093,3.15337718 14.2928932,2.79289322 L14.2928932,2.79289322 Z"/>
</svg>

<svg xmlns="http://www.w3.org/2000/svg" viewBox="0 0 24 24">
  <path d="M10 16c2.92 0 5.85.95 6 3.31v1.19c0 .48 0 1.4-.86 1.5H3c-.9 0-.99-.81-1-1.34V19.5c0-2.44 2.85-3.45 5.77-3.5H10zM9 6a4 4 0 1 1 0 8 4 4 0 0 1 0-8zm5.39-3.29a1 1 0 0 1 1.32.08L18 5.1l2.3-2.3.09-.08a1 1 0 0 1 1.32 1.5l-3 3-.1.08a1 1 0 0 1-1.32-.08l-3-3-.08-.1a1 1 0 0 1 .08-1.32z"/>
</svg>
